X:1
T:Carol, Carol Christians
T:Carol, Carol Christians
T:Robert Frederick Smith, 1894
T:Arthur Cleveland Coxe, 1840
T:Public Domain Courtesy of the Cyber Hymnal™
C:Robert Frederick Smith, 1894
Z:Public Domain
Z:Courtesy of the Cyber Hymnal™
%%score ( 1 2 ) ( 3 4 )
L:1/8
Q:1/4=107
M:4/4
K:Eb
V:1 treble 
V:2 treble 
V:3 bass 
V:4 bass 
V:1
 (GF) (GA) B2 B2 | ([GB]2 [Ge]2) B4 | (cB) (AG) [DF]2 (GA) | [EG]8 | (GF) (GA) B2 B2 | %5
w: Car- * ol, * car- ol,|Christ- * ians,|Car- * ol * joy- ful- *|ly;|Car- * ol * for the|
 ([FB]2 [Ef]2) [Df]2 [Dd]2 | (ed) (cB) A2 A2 | [DB]6 B2 | (cB) (cd) [Ee]2 [EB]2 | %9
w: com- * ing of|Christ’s * na- * ti- vi-|ty; And|pray * a * glad- some|
 (AG AB) [EG]2 E2 | ([DF]E) ([DF][EG]) [FA]2 [EG]2 | ([Ec]4 [Fd]4) || %12
w: Christ- * * * mas, For|all * good * Christ- ian|men, *|
"^Refrain" ([Ee][Ad]) ([Ge][Ad]) ([Ge][Ad]) ([Ge][Ad]) | ([Ge]2 [EG]2) [EB]2 [EB]2 | %14
w: Car- * ol, * car- * ol, *|Christ- * ians, For|
 (cB) ([Ec][Ad]) [Ge]2 [Fc]2 | (f6 e2) | ed cB Bcd!fermata!f | [Ge]8 |] %18
w: Christ- * mas * has come|a- *|gain. Car- ol, car- ol. * * *||
V:2
 E2 E2 (FE) (FA) | x4 (E2 G2) | E2 E2 x D2 x | x8 | E2 E2 (FE) (FG) | x8 | G2 G2 (FE) (DE) | x8 | %8
 D2 F2 x4 | E2 D2 x E2 x | x E x6 | x8 || x8 | x8 | E2 x6 | F8 | F2 A2 A4 | x8 |] %18
V:3
 (B,A,) (B,C) (DC) (DF) | E2 B,2 B,4 | A,2 [F,A,]2 (B,A,) (G,F,) | (E,2 G,2 B,4) | %4
 [E,B,]2 [E,B,]2 B,2 B,2 | ([D,B,]2 [C,=A,]2) [B,,B,]2 [B,,B,]2 | [E,B,]2 (ED) [F,C]2 [F,C]2 | %7
 (B,4 G,2) [B,,G,]2 | [B,,A,]2 [B,,A,]2 (G,F,) (G,A,) | [B,,B,]4 [E,B,]2 [G,B,]2 | %10
 B,2 B,2 [D,B,]2 [E,B,]2 | ([A,C]4 [A,B,]4) || B,2 (B,_C) (B,C) (B,C) | %13
 ([E,B,]2 [E,B,]2) [G,B,]2 [G,B,]2 | A,[G,B,]A,[F,B,] [G,B,]2 [A,C]2 | [=A,C]8 | %16
 B,2 [B,F]2 DEF!fermata!D | [E,E]8 |] %18
V:4
 E,2 E,2 E,2 E,2 | (E,D, E,F,) (G,2 E,2) | A,2 B,,2 B,,2 x2 | E,8 | x4 (D,C,) (D,E,) | x8 | %6
 x2 E,2 x4 | B,,6 x2 | x4 B,,2 B,,2 | x8 | (A,G,) (F,E,) x4 | x8 || (G,F,) E,2 E,2 E,2 | x8 | %14
 A, A, x6 | x8 | B,2 B,4 x2 | x8 |] %18

